packages/match-icons/sendgrid/svg/ab-testing.svg

<svg fill="none" height="32" viewBox="0 0 32 32" width="32" xmlns="http://www.w3.org/2000/svg"><g stroke="#394762" stroke-linecap="round" stroke-linejoin="round" stroke-width="1.7"><path d="m9 16v-5.2c.02757-.5035.25349-.97564.62832-1.31299.37488-.33734.86808-.51246 1.37168-.48702.5036-.02544.9968.14968 1.3717.48702.3748.33735.6007.80949.6283 1.31299v5.2"/><path d="m9 13h4"/><path d="m19 25h3c.2652 0 .5196.1054.7071.2929s.2929.4419.2929.7071v1c0 .2652-.1054.5196-.2929.7071s-.4419.2929-.7071.2929h-3z"/><path d="m19 22h3c.2652 0 .5196.1054.7071.2929s.2929.4419.2929.7071v1c0 .2652-.1054.5196-.2929.7071s-.4419.2929-.7071.2929h-3z"/><path d="m10 23v6.508c.0035.3974.164.7773.4465 1.0568s.6641.4359 1.0615.4352h18.092c.1829.0011.3642-.0339.5336-.103s.3235-.1709.4535-.2995c.13-.1287.2334-.2817.3043-.4503.0708-.1687.1077-.3496.1086-.5325v-15.124c-.0035-.3973-.1641-.777-.4466-1.0563-.2826-.2793-.6641-.4355-1.0614-.4344h-3.492"/><path d="m26 18h5"/><path d="m22 17.6147v-15.12402c-.0035-.39727-.1641-.777-.4466-1.05629-.2826-.27929-.6641-.435452-1.0614-.43438h-17.992c-.39526-.001423-.775.15378-1.05611.43164-.28111.27787-.44072.65577-.44389 1.05103v15.02532c.00352.3974.16403.7773.44653 1.0568.28251.2795.66407.4359 1.06147.4352h18.092c.1829.0011.3642-.0339.5336-.103s.3235-.1708.4535-.2995.2334-.2817.3043-.4503c.0708-.1687.1077-.3496.1086-.5325z"/><path d="m1 6h21"/></g></svg>

<svg width="32" height="32" viewBox="0 0 32 32" fill="none" xmlns="http://www.w3.org/2000/svg">
<path d="M9 16V10.8C9.02757 10.2965 9.25349 9.82436 9.62832 9.48701C10.0032 9.14967 10.4964 8.97455 11 8.99999C11.5036 8.97455 11.9968 9.14967 12.3717 9.48701C12.7465 9.82436 12.9724 10.2965 13 10.8V16" stroke="#394762" stroke-width="1.7" stroke-linecap="round" stroke-linejoin="round"/>
<path d="M9 13H13" stroke="#394762" stroke-width="1.7" stroke-linecap="round" stroke-linejoin="round"/>
<path d="M19 25H22C22.2652 25 22.5196 25.1054 22.7071 25.2929C22.8946 25.4804 23 25.7348 23 26V27C23 27.2652 22.8946 27.5196 22.7071 27.7071C22.5196 27.8946 22.2652 28 22 28H19V25Z" stroke="#394762" stroke-width="1.7" stroke-linecap="round" stroke-linejoin="round"/>
<path d="M19 22H22C22.2652 22 22.5196 22.1054 22.7071 22.2929C22.8946 22.4804 23 22.7348 23 23V24C23 24.2652 22.8946 24.5196 22.7071 24.7071C22.5196 24.8946 22.2652 25 22 25H19V22Z" stroke="#394762" stroke-width="1.7" stroke-linecap="round" stroke-linejoin="round"/>
<path d="M10 23V29.508C10.0035 29.9054 10.164 30.2853 10.4465 30.5648C10.729 30.8443 11.1106 31.0007 11.508 31H29.6C29.7829 31.0011 29.9642 30.9661 30.1336 30.897C30.303 30.8279 30.4571 30.7261 30.5871 30.5975C30.7171 30.4688 30.8205 30.3158 30.8914 30.1472C30.9622 29.9785 30.9991 29.7976 31 29.6147V14.4907C30.9965 14.0934 30.8359 13.7137 30.5534 13.4344C30.2708 13.1551 29.8893 12.9989 29.492 13H26" stroke="#394762" stroke-width="1.7" stroke-linecap="round" stroke-linejoin="round"/>
<path d="M26 18H31" stroke="#394762" stroke-width="1.7" stroke-linecap="round" stroke-linejoin="round"/>
<path d="M22 17.6147V2.49068C21.9965 2.09341 21.8359 1.71368 21.5534 1.43439C21.2708 1.1551 20.8893 0.998938 20.492 1.00001H2.5C2.10474 0.998587 1.725 1.15379 1.44389 1.43165C1.16278 1.70952 1.00317 2.08742 1 2.48268V17.508C1.00352 17.9054 1.16403 18.2853 1.44653 18.5648C1.72904 18.8443 2.1106 19.0007 2.508 19H20.6C20.7829 19.0011 20.9642 18.9661 21.1336 18.897C21.303 18.8279 21.4571 18.7262 21.5871 18.5975C21.7171 18.4688 21.8205 18.3158 21.8914 18.1472C21.9622 17.9785 21.9991 17.7976 22 17.6147V17.6147Z" stroke="#394762" stroke-width="1.7" stroke-linecap="round" stroke-linejoin="round"/>
<path d="M1 6H22" stroke="#394762" stroke-width="1.7" stroke-linecap="round" stroke-linejoin="round"/>
</svg>
